!!!COM: Palestrina, Giovanni Perluigi da
!!!OPR: Missa De Beata Marie Virginis (II)
!!!OMD: Sanctus rpt
!!!OTL: First Section
**kern	**kern	**kern	**kern	**kern
*Ibass	*Itenor	*Itenor	*Icalto	*Icant
!Bassus	!Tenor 2	!Tenor 1	!Altus	!Cantus
*clefF4	*clefGv2	*clefGv2	*clefG2	*clefG2
*k[]	*k[]	*k[]	*k[]	*k[]
*G:mix	*G:mix	*G:mix	*G:mix	*G:mix
*M4/2	*M4/2	*M4/2	*M4/2	*M4/2
=1	=1	=1	=1	=1
0r	0r	0r	1g	1r
.	.	.	2e	2r
.	.	.	2d	2dd
=2	=2	=2	=2	=2
0r	2r	0r	2e	2b
.	2d	.	2f	2a
.	2B	.	2g	2b
.	2A	.	4f	2cc
.	.	.	4e	.
=3	=3	=3	=3	=3
0r	2B	0r	2d	2dd
.	2c	.	1g	4cc
.	.	.	.	4b
.	[1d	.	.	1a
.	.	.	2f#	.
=4	=4	=4	=4	=4
1G	2d]	0r	2g	2.b
.	2B	.	2d	.
.	.	.	.	4a
2E	2c	.	2e	2g
2D	[2d	.	2f	2f
=5	=5	=5	=5	=5
2E	4d]	1r	2g	2e
.	4c	.	.	.
2F	1c	.	4f	2a
.	.	.	4e	.
1G	.	2r	1d	1g
.	2B	2g	.	.
=6	=6	=6	=6	=6
0r	2c	2e	1g	0r
.	2B	2d	.	.
.	1A	2e	1cc	.
.	.	2f	.	.
=7	=7	=7	=7	=7
1r	1G	2.g	2b	1dd
.	.	.	1g	.
.	.	8f	.	.
.	.	8e	.	.
2r	1r	1d	.	2b
2d	.	.	2f	2a
=8	=8	=8	=8	=8
2B	0r	2r	2d	2b
2A	.	2.a	2e	2cc
2B	.	.	2d	2dd
.	.	4g	.	.
2c	.	[2g	2g	2ee
=9	=9	=9	=9	=9
2.d	1r	2g]	2b	0dd
.	.	2f#	2a	.
4c	.	.	.	.
4B	2r	1g	2.g	.
4A	.	.	.	.
[2G	2d	.	.	.
.	.	.	4f	.
=10	=10	=10	=10	=10
2G]	2B	2r	2e	2r
2F	2A	2a	2d	2dd
1E	2B	2g	1e	1gg
.	2c	2e	.	.
=11	=11	=11	=11	=11
1D	1d	1f	0a	2ff
.	.	.	.	1dd
1A	1e	2e	.	.
.	.	[2A	.	2cc#
=12	=12	=12	=12	=12
1D	1d	2A]	1f#	2dd
.	.	1a	.	4d
.	.	.	.	4e
1d	2r	.	1r	4f#
.	.	.	.	4g
.	2d	2f#	.	[2a
=13	=13	=13	=13	=13
2B	2d	1g	0r	4a]
.	.	.	.	4g
2c	1e	.	.	1g
1A	.	1c	.	.
.	[2c	.	.	2f#
=14	=14	=14	=14	=14
1G	2c]	1d	2r	1g
.	2B	.	2g	.
2A	2c	4c	2e	1r
.	.	4A	.	.
[2c	2F	[2a	2f	.
=15	=15	=15	=15	=15
2c]	1G	4a]	1d	0r
.	.	4g	.	.
2B	.	1g	.	.
1A	2r	.	1c	.
.	2c	2f#	.	.
=16	=16	=16	=16	=16
2G	2B	2g	2d	0r
4F	4A	2c	1f	.
4E	4G	.	.	.
2D	4A	2d	.	.
.	4B	.	.	.
2C	[2c	2g	2e	.
=17	=17	=17	=17	=17
1G	2c]	1g	2d	2r
.	4B	.	1g	2dd
.	4A	.	.	.
1r	2G	1r	.	2b
.	[2g	.	2c	2cc
=18	=18	=18	=18	=18
0r	2g]	2r	1d	1a
.	2f	2d	.	.
.	2d	2B	2r	1g
.	2e	2c	[2g	.
=19	=19	=19	=19	=19
0r	1c	1A	2g]	2a
.	.	.	2f	1cc
.	2r	1G	2e	.
.	2g	.	[2d	2b
=20	=20	=20	=20	=20
1r	2e	2A	4d]	1a
.	.	.	4c	.
.	2f	2F	1c	.
2r	1d	[1G	.	2g
2G	.	.	2B	2dd
=21	=21	=21	=21	=21
2E	1c	2G]	2c	2ee
2F	.	2A	2.A	2cc
1D	2d	1F	.	2ff
.	.	.	4A	.
.	2f	.	2B	2dd
=22	=22	=22	=22	=22
1C	4e	1G	2c	1ee
.	4d	.	.	.
.	4c	.	2e	.
.	4B	.	.	.
2D	1A	2r	2f	2dd
[2F	.	[2c	[2a	4cc
.	.	.	.	4b
=23	=23	=23	=23	=23
2F]	1r	2c]	2a]	2a
2E	.	2G	1g	2cc
1D	1d	1A	.	1dd
.	.	.	2f#	.
=24	=24	=24	=24	=24
2G	2B	1G	2g	2r
2E	2c	.	2g	2ee
2F	1A	2r	2a	2cc
2D	.	[2d	2f	2dd
=25	=25	=25	=25	=25
1E	1G	2d]	1g	2b
.	.	2c	.	2g
2D	2A	2d	2f#	2dd
2C	[2c	[2G	4e	2ee
.	.	.	4f#	.
=26	=26	=26	=26	=26
1G	2c]	4G]	4g	0dd
.	.	4A	4d	.
.	2B	4B	1g	.
.	.	4c	.	.
1D	1A	1d	.	.
.	.	.	2f#	.
=27	=27	=27	=27	=27
[0G	[0G	[0d	[0g	[0b
=28	=28	=28	=28	=28
0G]	0G]	0d]	0g]	0b]
*-	*-	*-	*-	*-
!!!CDT: 1525/^1526/-1594/2/2
!!!OCY: Italia
!!!AGN: Mass (Paraphrase)
!!!AST: renaissance, vocal
!!!ASW: Gregorian Mass
!!!PWK: Masses, Book Mantuan I
!!!RNB: Cadence finals: D
!!!YOR: Le Opere Complete, v. 18, p. 126
!!!YOO: Rome, Italy: Fratelli Scalera
!!!END: 1992//
!!!EED: John Miller
!!!YEC: Copyright 2000, John Miller
!!!YEN: United States of America
!!!YEM: Rights to all derivative electronic formats reserved.
!!!YEM: Refer to licensing agreement for further details.
!!!YEM: This file must be accompanied by the licensing agreement.
!!!YEM: A copy of the licensing agreement may be found at http://www.music-cog.ohio-state.edu/HumdrumDatabases/Palestrina/license.txt
!!!EMD: converted to Humdrum by Bret Aarden
